X: 1296
T: Jim Kennedy's Favorite
R:Reel
B:O'Neill's 1296
Z:Transcribed by Trish O'Neil
M:C|
L:1/8
K:G
(3GGG (GA) (BE)E2|BEdE BEE(F|G)(FG)A BAB^d|1(3efg (F^D) edeg:|2(3efg (f^d)e2||
(ef)|(3gag (3fgf edB^c|d2(ed)(Bd)d2|(3gag (3fgf edB^d|(3efg (f^d)e2(ef)|
(3gag (3fgf edB^c|d2(ed)(Bd)d2|bgaf gfe^d|(3efg (f^d)e2g2|]


